src/16/panel/nm-tech-4g.svg

<svg xmlns="http://www.w3.org/2000/svg" width="16" height="16"><defs><style id="current-color-scheme" type="text/css">.ColorScheme-Text{color:#bebebe}</style></defs><path class="ColorScheme-Text" d="M15.5 13v1.5c0 1 0 1-1 1s-1 0-1-1v-2c0-1 0-1 1-1H16M11.5 16v-2.5h-2V11m2 2.5V11" fill="none" stroke="currentColor" stroke-linejoin="round"/></svg>

<svg xmlns="http://www.w3.org/2000/svg" width="16" height="16" version="1.1">
 <defs>
  <style id="current-color-scheme" type="text/css">
   .ColorScheme-Text { color:#bebebe; } .ColorScheme-Highlight { color:#5294e2; }
  </style>
 </defs>
 <path style="fill:none;stroke:currentColor;stroke-linejoin:round" class="ColorScheme-Text" d="M 15.5,13 V 14.5 C 15.5,15.5 15.5,15.5 14.5,15.5 13.5,15.5 13.5,15.5 13.5,14.5 V 12.5 C 13.5,11.5 13.5,11.5 14.5,11.5 H 16"/>
 <path style="fill:none;stroke:currentColor;stroke-linejoin:round" class="ColorScheme-Text" d="M 11.5,16 V 13.5 H 9.4999 V 11 M 11.5,13.5 V 11"/>
</svg>
